Dominus_Funeral/22/apps/khangman.svg

<svg xmlns="http://www.w3.org/2000/svg" width="24" height="24"><defs><linearGradient id="a"><stop offset="0" stop-color="#2c89a0"/><stop offset="1" stop-color="#2c89a0" stop-opacity="0"/></linearGradient><linearGradient id="b"><stop stop-color="#3daefd"/><stop offset="1" stop-color="#24a058"/></linearGradient></defs><path d="M12.296.843c-.399 0-.696.096-1.077.114V2.43l-.041.024a11.332 11.332 0 0 1 .041-.004v1.008l.797.399.799.399V.898c-.188-.004-.327-.055-.519-.055zM10.4 3.752l-.21.021a.84.84 0 0 0-.567.567.944.944 0 0 0 0 .42.84.84 0 0 0 .21.357l.084.083 1.742.881 1.827.903c.356.126.776-.063.944-.42a.798.798 0 0 0-.19-.945 104.362 104.362 0 0 0-3.63-1.824.84.84 0 0 0-.21-.043zm-.063 2.31l-.21.04a.734.734 0 0 0-.315.211.734.734 0 0 0-.21.356.777.777 0 0 0 .043.547.842.842 0 0 0 .252.292l3.589 1.805a1.05 1.05 0 0 0 .42 0 .965.965 0 0 0 .314-.168.727.727 0 0 0 .25-.314.84.84 0 0 0-.062-.692.924.924 0 0 0-.334-.315 575.512 575.512 0 0 1-3.506-1.72.903.903 0 0 0-.23-.023zm-.168 2.266a.818.818 0 0 0-.252 1.468 12.529 12.529 0 0 0 1.154.568l-.21.418c-.21.357-.46.672-1.426 1.847-1.26 1.512-1.679 2.099-2.12 2.812a6.128 6.128 0 0 0-.818 2.016 4.575 4.575 0 0 0 3.086 5.287c1.049.4 2.37.504 3.608.336a5.457 5.457 0 0 0 3.086-1.385c.776-.756 1.217-1.72 1.321-2.896v-.86c-.063-.84-.356-1.68-.902-2.582a17.124 17.124 0 0 0-1.637-2.202l-1.008-1.26-.293-.357h.062a.798.798 0 0 0 .378-.21.798.798 0 0 0 0-1.133l-.104-.126-1.68-.84-1.762-.859a1.028 1.028 0 0 0-.23-.042zm1.846 3.65V12l.148.168c.21.294.462.61 1.112 1.365l.84 1.028c1.132 1.406 1.741 2.52 1.888 3.442v.84c-.104.818-.399 1.364-.944 1.804a4.197 4.197 0 0 1-1.91.797c-1.133.21-2.308.105-3.273-.294a3.357 3.357 0 0 1-1.113-.734 2.098 2.098 0 0 1-.44-.609c-.21-.42-.293-.84-.293-1.407 0-.314-.001-.418.082-.713.21-.755.693-1.616 1.49-2.707l1.008-1.215.734-.883.63-.86z" fill="#1a1a1a"/></svg>

<?xml version="1.0" encoding="UTF-8" standalone="no"?>
<svg
   xmlns:dc="http://purl.org/dc/elements/1.1/"
   xmlns:cc="http://creativecommons.org/ns#"
   xmlns:rdf="http://www.w3.org/1999/02/22-rdf-syntax-ns#"
   xmlns:svg="http://www.w3.org/2000/svg"
   xmlns="http://www.w3.org/2000/svg"
   xmlns:sodipodi="http://sodipodi.sourceforge.net/DTD/sodipodi-0.dtd"
   xmlns:inkscape="http://www.inkscape.org/namespaces/inkscape"
   width="24"
   height="24"
   version="1.1"
   id="svg16"
   sodipodi:docname="khangman.svg"
   inkscape:version="0.92.4 (5da689c313, 2019-01-14)">
  <metadata
     id="metadata20">
    <rdf:RDF>
      <cc:Work
         rdf:about="">
        <dc:format>image/svg+xml</dc:format>
        <dc:type
           rdf:resource="http://purl.org/dc/dcmitype/StillImage" />
        <dc:title></dc:title>
      </cc:Work>
    </rdf:RDF>
  </metadata>
  <sodipodi:namedview
     pagecolor="#ffffff"
     bordercolor="#666666"
     borderopacity="1"
     objecttolerance="10"
     gridtolerance="10"
     guidetolerance="10"
     inkscape:pageopacity="0"
     inkscape:pageshadow="2"
     inkscape:window-width="1138"
     inkscape:window-height="480"
     id="namedview18"
     showgrid="false"
     inkscape:zoom="9.8333333"
     inkscape:cx="1.0677966"
     inkscape:cy="12"
     inkscape:window-x="0"
     inkscape:window-y="25"
     inkscape:window-maximized="0"
     inkscape:current-layer="svg16" />
  <defs
     id="defs12">
    <linearGradient
       id="a">
      <stop
         offset="0"
         stop-color="#2c89a0"
         id="stop2" />
      <stop
         offset="1"
         stop-color="#2c89a0"
         stop-opacity="0"
         id="stop4" />
    </linearGradient>
    <linearGradient
       id="b">
      <stop
         stop-color="#3daefd"
         id="stop7" />
      <stop
         offset="1"
         stop-color="#24a058"
         id="stop9" />
    </linearGradient>
  </defs>
  <path
     d="m 12.296,0.843 c -0.399,0 -0.696,0.096 -1.077,0.114 V 2.43 L 11.178,2.454 A 11.332,11.332 0 0 1 11.219,2.45 v 1.008 l 0.797,0.399 0.799,0.399 V 0.898 C 12.627,0.894 12.488,0.843 12.296,0.843 Z M 10.4,3.752 10.19,3.773 a 0.84,0.84 0 0 0 -0.567,0.567 0.944,0.944 0 0 0 0,0.42 0.84,0.84 0 0 0 0.21,0.357 L 9.917,5.2 11.659,6.081 13.486,6.984 C 13.842,7.11 14.262,6.921 14.43,6.564 A 0.798,0.798 0 0 0 14.24,5.619 104.362,104.362 0 0 0 10.61,3.795 0.84,0.84 0 0 0 10.4,3.752 Z m -0.063,2.31 -0.21,0.04 A 0.734,0.734 0 0 0 9.812,6.313 0.734,0.734 0 0 0 9.602,6.669 0.777,0.777 0 0 0 9.645,7.216 0.842,0.842 0 0 0 9.897,7.508 l 3.589,1.805 a 1.05,1.05 0 0 0 0.42,0 A 0.965,0.965 0 0 0 14.22,9.145 0.727,0.727 0 0 0 14.47,8.831 0.84,0.84 0 0 0 14.408,8.139 0.924,0.924 0 0 0 14.074,7.824 575.512,575.512 0 0 1 10.568,6.104 0.903,0.903 0 0 0 10.338,6.081 Z m -0.168,2.266 a 0.818,0.818 0 0 0 -0.252,1.468 12.529,12.529 0 0 0 1.154,0.568 l -0.21,0.418 c -0.21,0.357 -0.46,0.672 -1.426,1.847 -1.26,1.512 -1.679,2.099 -2.12,2.812 a 6.128,6.128 0 0 0 -0.818,2.016 4.575,4.575 0 0 0 3.086,5.287 c 1.049,0.4 2.37,0.504 3.608,0.336 a 5.457,5.457 0 0 0 3.086,-1.385 c 0.776,-0.756 1.217,-1.72 1.321,-2.896 v -0.86 c -0.063,-0.84 -0.356,-1.68 -0.902,-2.582 a 17.124,17.124 0 0 0 -1.637,-2.202 l -1.008,-1.26 -0.293,-0.357 h 0.062 a 0.798,0.798 0 0 0 0.378,-0.21 0.798,0.798 0 0 0 0,-1.133 L 14.094,10.069 12.414,9.229 10.652,8.37 a 1.028,1.028 0 0 0 -0.23,-0.042 z m 1.846,3.65 V 12 l 0.148,0.168 c 0.21,0.294 0.462,0.61 1.112,1.365 l 0.84,1.028 c 1.132,1.406 1.741,2.52 1.888,3.442 v 0.84 c -0.104,0.818 -0.399,1.364 -0.944,1.804 a 4.197,4.197 0 0 1 -1.91,0.797 c -1.133,0.21 -2.308,0.105 -3.273,-0.294 A 3.357,3.357 0 0 1 8.763,20.416 2.098,2.098 0 0 1 8.323,19.807 C 8.113,19.387 8.03,18.967 8.03,18.4 c 0,-0.314 -10e-4,-0.418 0.082,-0.713 0.21,-0.755 0.693,-1.616 1.49,-2.707 l 1.008,-1.215 0.734,-0.883 0.63,-0.86 z"
     id="path14"
     inkscape:connector-curvature="0"
     style="fill:#1a1a1a" />
</svg>
